Numix/16/status/indicator-keyboard-Te-2.svg

<?xml version="1.0" encoding="UTF-8" standalone="no"?>
<svg
   xmlns:dc="http://purl.org/dc/elements/1.1/"
   xmlns:cc="http://creativecommons.org/ns#"
   xmlns:rdf="http://www.w3.org/1999/02/22-rdf-syntax-ns#"
   xmlns:svg="http://www.w3.org/2000/svg"
   xmlns="http://www.w3.org/2000/svg"
   xmlns:sodipodi="http://sodipodi.sourceforge.net/DTD/sodipodi-0.dtd"
   xmlns:inkscape="http://www.inkscape.org/namespaces/inkscape"
   viewBox="0 0 16 16"
   id="svg2"
   version="1.1"
   inkscape:version="0.91 r13725"
   sodipodi:docname="indicator-keyboard-Te-2.svg">
  <metadata
     id="metadata14">
    <rdf:RDF>
      <cc:Work
         rdf:about="">
        <dc:format>image/svg+xml</dc:format>
        <dc:type
           rdf:resource="http://purl.org/dc/dcmitype/StillImage" />
      </cc:Work>
    </rdf:RDF>
  </metadata>
  <defs
     id="defs12" />
  <sodipodi:namedview
     pagecolor="#ffffff"
     bordercolor="#666666"
     borderopacity="1"
     objecttolerance="10"
     gridtolerance="10"
     guidetolerance="10"
     inkscape:pageopacity="0"
     inkscape:pageshadow="2"
     inkscape:window-width="640"
     inkscape:window-height="480"
     id="namedview10"
     showgrid="false"
     inkscape:zoom="14.75"
     inkscape:cx="8"
     inkscape:cy="8"
     inkscape:window-x="65"
     inkscape:window-y="24"
     inkscape:window-maximized="0"
     inkscape:current-layer="svg2" />
  <path
     style="fill:#ececec;fill-opacity:1"
     d="M 1.5996094 0 C 0.71320937 2.9605947e-16 0 0.71320937 0 1.5996094 L 0 14.400391 C 2.9605947e-16 15.286791 0.71320937 16 1.5996094 16 L 14.400391 16 C 15.286791 16 16 15.286791 16 14.400391 L 16 1.5996094 C 16 0.71320937 15.286791 0 14.400391 0 L 1.5996094 0 z M 1.9394531 4.859375 L 6.546875 4.859375 L 6.546875 5.390625 L 4.5488281 5.390625 L 4.5488281 11.095703 L 3.9375 11.095703 L 3.9375 5.390625 L 1.9394531 5.390625 L 1.9394531 4.859375 z M 8.8417969 6.3359375 C 9.4117969 6.3359375 9.8651722 6.5205781 10.201172 6.8925781 C 10.543172 7.2645781 10.712891 7.8373281 10.712891 8.6113281 C 10.712891 8.6593281 10.711078 8.7078594 10.705078 8.7558594 C 10.705078 8.8038594 10.701313 8.848625 10.695312 8.890625 L 7.4296875 8.890625 C 7.4476875 9.460625 7.5875625 9.8990779 7.8515625 10.205078 C 8.1155625 10.511078 8.5353281 10.664062 9.1113281 10.664062 C 9.4293281 10.664062 9.6811875 10.634219 9.8671875 10.574219 C 10.053187 10.514219 10.189437 10.463875 10.273438 10.421875 L 10.380859 10.925781 C 10.296859 10.973781 10.138297 11.029703 9.9042969 11.095703 C 9.6762969 11.161703 9.40575 11.195312 9.09375 11.195312 C 8.68575 11.195312 8.3387813 11.135625 8.0507812 11.015625 C 7.7627812 10.895625 7.5238906 10.727719 7.3378906 10.511719 C 7.1518906 10.295719 7.0175938 10.040094 6.9335938 9.7460938 C 6.8495938 9.4460938 6.8085937 9.119625 6.8085938 8.765625 C 6.8085938 8.357625 6.8645156 8.003125 6.9785156 7.703125 C 7.0985156 7.397125 7.2515 7.1415 7.4375 6.9375 C 7.6295 6.7335 7.8459375 6.5842813 8.0859375 6.4882812 C 8.3319375 6.3862812 8.5837969 6.3359375 8.8417969 6.3359375 z M 8.8515625 6.8574219 C 8.6415625 6.8574219 8.4512031 6.8984219 8.2832031 6.9824219 C 8.1212031 7.0664219 7.9775625 7.1802187 7.8515625 7.3242188 C 7.7315625 7.4622188 7.6364531 7.6245469 7.5644531 7.8105469 C 7.4984531 7.9965469 7.4592656 8.1924844 7.4472656 8.3964844 L 10.111328 8.3964844 C 10.099328 7.9104844 9.9855309 7.5317188 9.7695312 7.2617188 C 9.5535312 6.9917187 9.2475625 6.8574219 8.8515625 6.8574219 z M 12.732422 8.7539062 C 13.126322 8.7539062 13.422194 8.851875 13.621094 9.046875 C 13.819994 9.237975 13.919922 9.5044563 13.919922 9.8476562 C 13.919922 9.9997563 13.892491 10.14475 13.837891 10.28125 C 13.783291 10.41385 13.708834 10.543169 13.615234 10.667969 C 13.525534 10.792769 13.421688 10.912297 13.304688 11.029297 C 13.187688 11.146297 13.070119 11.263859 12.949219 11.380859 C 12.847819 11.478359 12.747891 11.578288 12.650391 11.679688 C 12.556791 11.777187 12.470577 11.877116 12.392578 11.978516 C 12.318478 12.076016 12.257737 12.172031 12.210938 12.269531 C 12.168038 12.363131 12.146484 12.457181 12.146484 12.550781 L 12.146484 12.5625 L 14.060547 12.5625 L 14.060547 12.896484 L 11.726562 12.896484 C 11.726562 12.888684 11.724636 12.874969 11.720703 12.855469 L 11.720703 12.755859 C 11.720703 12.572559 11.754012 12.402094 11.820312 12.246094 C 11.886613 12.086194 11.968912 11.937275 12.070312 11.796875 C 12.175612 11.656475 12.291216 11.525197 12.416016 11.404297 C 12.544715 11.283397 12.668156 11.165834 12.785156 11.052734 C 12.882656 10.959134 12.974747 10.869003 13.060547 10.783203 C 13.150247 10.693503 13.226669 10.603366 13.292969 10.509766 C 13.359269 10.416166 13.412172 10.316237 13.451172 10.210938 C 13.490172 10.105638 13.509766 9.9900344 13.509766 9.8652344 C 13.509766 9.5922344 13.435309 9.39825 13.287109 9.28125 C 13.142809 9.16035 12.960581 9.0996094 12.738281 9.0996094 C 12.613481 9.0996094 12.501796 9.1152844 12.404297 9.1464844 C 12.306797 9.1776844 12.220584 9.2149125 12.146484 9.2578125 C 12.076284 9.2968125 12.017497 9.3379594 11.966797 9.3808594 C 11.916097 9.4237594 11.878869 9.4570688 11.855469 9.4804688 L 11.65625 9.2167969 C 11.67965 9.1894969 11.720797 9.1503094 11.779297 9.0996094 C 11.841697 9.0450094 11.918113 8.9921062 12.007812 8.9414062 C 12.101412 8.8907063 12.207225 8.8476 12.328125 8.8125 C 12.449024 8.7735 12.584222 8.7539063 12.732422 8.7539062 z "
     id="path4" />
</svg>

<svg xmlns="http://www.w3.org/2000/svg" viewBox="0 0 16 16">
 <path d="m 1.6 0 c -0.886 0 -1.6 0.713 -1.6 1.6 l 0 12.801 c 0 0.886 0.713 1.6 1.6 1.6 l 12.801 0 c 0.886 0 1.6 -0.713 1.6 -1.6 l 0 -12.801 c 0 -0.886 -0.713 -1.6 -1.6 -1.6 l -12.801 0 z m 0.34 4.859 l 4.607 0 l 0 0.531 l -1.998 0 l 0 5.705 l -0.611 0 l 0 -5.705 l -1.998 0 l 0 -0.531 z m 6.902 1.477 c 0.57 0 1.023 0.185 1.359 0.557 c 0.342 0.372 0.512 0.945 0.512 1.719 c 0 0.048 -0.002 0.097 -0.008 0.145 c 0 0.048 -0.004 0.093 -0.01 0.135 l -3.266 0 c 0.018 0.57 0.158 1.01 0.422 1.314 c 0.264 0.306 0.684 0.459 1.26 0.459 c 0.318 0 0.57 -0.03 0.756 -0.09 c 0.186 -0.06 0.322 -0.11 0.406 -0.152 l 0.107 0.504 c -0.084 0.048 -0.243 0.104 -0.477 0.17 c -0.228 0.066 -0.499 0.1 -0.811 0.1 c -0.408 0 -0.755 -0.06 -1.043 -0.18 c -0.288 -0.12 -0.527 -0.288 -0.713 -0.504 c -0.186 -0.216 -0.32 -0.472 -0.404 -0.766 c -0.084 -0.3 -0.125 -0.626 -0.125 -0.98 c 0 -0.408 0.056 -0.762 0.17 -1.063 c 0.12 -0.306 0.273 -0.562 0.459 -0.766 c 0.192 -0.204 0.408 -0.353 0.648 -0.449 c 0.246 -0.102 0.498 -0.152 0.756 -0.152 z m 0.01 0.521 c -0.21 0 -0.4 0.041 -0.568 0.125 c -0.162 0.084 -0.306 0.198 -0.432 0.342 c -0.12 0.138 -0.215 0.3 -0.287 0.486 c -0.066 0.186 -0.105 0.382 -0.117 0.586 l 2.664 0 c -0.012 -0.486 -0.126 -0.865 -0.342 -1.135 c -0.216 -0.27 -0.522 -0.404 -0.918 -0.404 z m 3.881 1.896 c 0.394 0 0.69 0.098 0.889 0.293 c 0.199 0.191 0.299 0.458 0.299 0.801 c 0 0.152 -0.027 0.297 -0.082 0.434 c -0.055 0.133 -0.129 0.262 -0.223 0.387 c -0.09 0.125 -0.194 0.244 -0.311 0.361 c -0.117 0.117 -0.235 0.235 -0.355 0.352 c -0.101 0.098 -0.201 0.197 -0.299 0.299 c -0.094 0.097 -0.18 0.197 -0.258 0.299 c -0.074 0.097 -0.135 0.194 -0.182 0.291 c -0.043 0.094 -0.064 0.188 -0.064 0.281 l 0 0.012 l 1.914 0 l 0 0.334 l -2.334 0 c 0 -0.008 -0.002 -0.022 -0.006 -0.041 l 0 -0.1 c 0 -0.183 0.033 -0.354 0.1 -0.51 c 0.066 -0.16 0.149 -0.309 0.25 -0.449 c 0.105 -0.14 0.221 -0.272 0.346 -0.393 c 0.129 -0.121 0.252 -0.238 0.369 -0.352 c 0.098 -0.094 0.19 -0.184 0.275 -0.27 c 0.09 -0.09 0.166 -0.18 0.232 -0.273 c 0.066 -0.094 0.119 -0.194 0.158 -0.299 c 0.039 -0.105 0.059 -0.221 0.059 -0.346 c 0 -0.273 -0.074 -0.467 -0.223 -0.584 c -0.144 -0.121 -0.327 -0.182 -0.549 -0.182 c -0.125 0 -0.236 0.016 -0.334 0.047 c -0.098 0.031 -0.184 0.068 -0.258 0.111 c -0.07 0.039 -0.129 0.08 -0.18 0.123 c -0.051 0.043 -0.088 0.076 -0.111 0.1 l -0.199 -0.264 c 0.023 -0.027 0.065 -0.066 0.123 -0.117 c 0.062 -0.055 0.139 -0.108 0.229 -0.158 c 0.094 -0.051 0.199 -0.094 0.32 -0.129 c 0.121 -0.039 0.256 -0.059 0.404 -0.059 z" style="fill:#ececec;fill-opacity:1"/>
</svg>
